X:81
T:RVW2/1/81 It's Of An Old Miser (4 of 6)-0
T:Sung by Mr. Locke, Rollesby, Norfolk, 17 April 1908
C:Transcribed by Simon Furey and Lewis Jones
L:1/4
Q:1/4=110
M:3/4
I:linebreak $
K:D
"^(Editorial suggestion) Allegretto " A | D d d | A D A | G F E | D2 A | B c d |$ e A B/c/ |
"^(a)" d c B | A2 A | B c d | e/c/ !fermata!A e |$ d B A | G F A/B/4c/4 | d3/2 e/ d/B/ | A/F/ D A | G F E | D2 ||$ A | D d d | A D A | G F E | D2 A | B c d |$ e A B/c/ |"^(a) var." d F ^G | A2 A | B c d | e/c/ !fermata!A e |$ d B A | G F A/B/4c/4 | d3/2 e/ d/B/ | A/F/ D A | G F E | D2 |]

